packages/tokens/icons/expandPlatform/size32Px.svg

<svg viewBox="0 0 32 32" fill="none" xmlns="http://www.w3.org/2000/svg" width="1em" height="1em"><path d="M11.9177 25.8943C11.3319 25.3085 11.3319 24.3588 11.9177 23.773L14.9229 20.7678C15.5087 20.182 16.4584 20.182 17.0442 20.7678L20.0494 23.773C20.6352 24.3588 20.6352 25.3085 20.0494 25.8943L17.0442 28.8995C16.4584 29.4853 15.5087 29.4853 14.9229 28.8995L11.9177 25.8943Z" stroke="currentColor"/><path d="M2.91853 16.9099C2.33274 16.3241 2.33274 15.3744 2.91853 14.7886L14.9393 2.76777C15.5251 2.18198 16.4749 2.18198 17.0607 2.76777L29.0815 14.7886C29.6673 15.3744 29.6673 16.3241 29.0815 16.9099L17.0607 28.9307C16.4749 29.5165 15.5251 29.5165 14.9393 28.9307L2.91853 16.9099Z" stroke="currentColor"/><path d="M15.5001 15.0784C15.5001 15.3546 15.7239 15.5784 16.0001 15.5784C16.2762 15.5784 16.5001 15.3546 16.5001 15.0784H15.5001ZM12.8181 10.4749C12.6228 10.6701 12.6228 10.9867 12.8181 11.182C13.0133 11.3772 13.3299 11.3772 13.5252 11.182L12.8181 10.4749ZM16.0001 8L16.3536 7.64645C16.1583 7.45118 15.8418 7.45118 15.6465 7.64645L16.0001 8ZM18.4749 11.182C18.6702 11.3772 18.9868 11.3772 19.182 11.182C19.3773 10.9867 19.3773 10.6701 19.182 10.4749L18.4749 11.182ZM15.5001 8.57843V15.0784H16.5001V8.57843H15.5001ZM13.5252 11.182L16.3536 8.35355L15.6465 7.64645L12.8181 10.4749L13.5252 11.182ZM15.6465 8.35355L18.4749 11.182L19.182 10.4749L16.3536 7.64645L15.6465 8.35355Z" fill="currentColor"/></svg>

<svg xmlns="http://www.w3.org/2000/svg" fill="none" viewBox="0 0 32 32" width="1em" height="1em"><path stroke="currentColor" d="M11.918 25.894a1.5 1.5 0 0 1 0-2.121l3.005-3.005a1.5 1.5 0 0 1 2.121 0l3.005 3.005a1.5 1.5 0 0 1 0 2.121L17.044 28.9a1.5 1.5 0 0 1-2.121 0l-3.005-3.006Z"/><path stroke="currentColor" d="M2.919 16.91a1.5 1.5 0 0 1 0-2.121l12.02-12.021a1.5 1.5 0 0 1 2.122 0l12.02 12.02a1.5 1.5 0 0 1 0 2.122l-12.02 12.02a1.5 1.5 0 0 1-2.122 0L2.92 16.91Z"/><path fill="currentColor" d="M15.5 15.078a.5.5 0 1 0 1 0h-1Zm-2.682-4.603a.5.5 0 1 0 .707.707l-.707-.707ZM16 8l.354-.354a.5.5 0 0 0-.707 0L16 8Zm2.475 3.182a.5.5 0 0 0 .707-.707l-.707.707ZM15.5 8.578v6.5h1v-6.5h-1Zm-1.975 2.604 2.829-2.828-.707-.708-2.829 2.829.707.707Zm2.121-2.828 2.829 2.828.707-.707-2.828-2.829-.707.708Z"/></svg>
